Papirus/16x16/apps/app.organicmaps.desktop.svg

<svg width="16" height="16" version="1.1" xmlns="http://www.w3.org/2000/svg">
 <rect transform="matrix(0 -.28571428 -.28571428 0 -1.1428572 -1.1428572)" x="-60" y="-60" width="56" height="56" rx="28" ry="28" style="fill:#00783b"/>
 <path d="m8 14-3.4102628-5c-0.1891863-0.2773779-0.5897372-1.11104-0.5897372-2 0-2.209139 1.790861-4 4-4s4 1.790861 4 4c0 0.9009744-0.324891 1.7403728-0.529662 2zm2-7c0-1.084959-0.8796414-2-2-2s-2 0.8960048-2 2 0.9030847 2 2 2 2-0.915041 2-2z" style="fill:#e4e4e4"/>
</svg>

<svg xmlns="http://www.w3.org/2000/svg" width="16" height="16" version="1.1">
 <rect style="fill:#00783b" width="16" height="16" x="0" y="0" rx="8" ry="8"/>
 <path style="fill:#e4e4e4" d="M 8,14 4.5897,9 C 4.4006,8.7226 4,7.889 4,7 4,4.7909 5.7909,3 8,3 10.209,3 12,4.7909 12,7 12,7.901 11.675,8.7404 11.47,9 Z M 10,7 C 10,5.915 9.1204,5 8,5 6.8796,5 6,5.896 6,7 6,8.104 6.9031,9 8,9 9.0969,9 10,8.085 10,7 Z"/>
</svg>
